hero/outline/stop.svg

<svg width="24" height="24" viewBox="0 0 24 24" fill="none" xmlns="http://www.w3.org/2000/svg">
<path d="M5.25 7.5C5.25 6.25736 6.25736 5.25 7.5 5.25H16.5C17.7426 5.25 18.75 6.25736 18.75 7.5V16.5C18.75 17.7426 17.7426 18.75 16.5 18.75H7.5C6.25736 18.75 5.25 17.7426 5.25 16.5V7.5Z" stroke="#0F172A" stroke-width="1.5" stroke-linecap="round" stroke-linejoin="round"/>
</svg>

<svg viewBox="0 0 24 24" xmlns="http://www.w3.org/2000/svg"><path fill="none" stroke="#000" stroke-linecap="round" stroke-linejoin="round" stroke-width="1.5" d="M5.25 7.5v0c0-1.25 1-2.25 2.25-2.25h9v0c1.24 0 2.25 1 2.25 2.25v9 0c0 1.24-1.01 2.25-2.25 2.25h-9v0c-1.25 0-2.25-1.01-2.25-2.25v-9Z"/></svg>
